Papirus-GTK/48x48/apps/gshutdown.svg

<?xml version="1.0" encoding="UTF-8" standalone="no"?>
<svg
   xmlns:dc="http://purl.org/dc/elements/1.1/"
   xmlns:cc="http://creativecommons.org/ns#"
   xmlns:rdf="http://www.w3.org/1999/02/22-rdf-syntax-ns#"
   xmlns:svg="http://www.w3.org/2000/svg"
   xmlns="http://www.w3.org/2000/svg"
   xmlns:sodipodi="http://sodipodi.sourceforge.net/DTD/sodipodi-0.dtd"
   xmlns:inkscape="http://www.inkscape.org/namespaces/inkscape"
   version="1.1"
   id="svg2"
   viewBox="0 0 48 48.000001"
   height="48"
   width="48"
   inkscape:version="0.91 r13725"
   sodipodi:docname="gshutdown.svg">
  <sodipodi:namedview
     pagecolor="#ffffff"
     bordercolor="#666666"
     borderopacity="1"
     objecttolerance="10"
     gridtolerance="10"
     guidetolerance="10"
     inkscape:pageopacity="0"
     inkscape:pageshadow="2"
     inkscape:window-width="1600"
     inkscape:window-height="849"
     id="namedview16"
     showgrid="false"
     inkscape:zoom="5.33"
     inkscape:cx="-8.3389831"
     inkscape:cy="24"
     inkscape:window-x="0"
     inkscape:window-y="0"
     inkscape:window-maximized="1"
     inkscape:current-layer="svg2" />
  <defs
     id="defs4" />
  <metadata
     id="metadata7">
    <rdf:RDF>
      <cc:Work
         rdf:about="">
        <dc:format>image/svg+xml</dc:format>
        <dc:type
           rdf:resource="http://purl.org/dc/dcmitype/StillImage" />
        <dc:title></dc:title>
      </cc:Work>
    </rdf:RDF>
  </metadata>
  <circle
     style="opacity:1;fill:#4d4d4d;fill-opacity:1;stroke:none;stroke-width:10;stroke-miterlimit:4;stroke-dasharray:none;stroke-opacity:1"
     id="path4136"
     cx="24"
     cy="23.999983"
     r="20" />
  <circle
     style="opacity:0.2;fill:#000000;fill-opacity:1;stroke:none;stroke-width:10;stroke-miterlimit:4;stroke-dasharray:none;stroke-opacity:1"
     id="circle4154"
     cx="24"
     cy="24.999983"
     r="17.000017" />
  <circle
     r="17.000017"
     cy="23.999983"
     cx="24"
     id="circle4138"
     style="opacity:1;fill:#cb4444;fill-opacity:1;stroke:none;stroke-width:10;stroke-miterlimit:4;stroke-dasharray:none;stroke-opacity:1" />
  <path
     inkscape:connector-curvature="0"
     id="path4178"
     d="m 24,14 a 11,11 0 0 0 -0.410156,0.019 11,11 0 0 1 0.599609,-0.014 11,11 0 0 0 -0.189453,0 z m 0.464844,0.016 a 11,11 0 0 1 0.625,0.049 11,11 0 0 0 -0.625,-0.049 z m -1.400391,0.031 a 11,11 0 0 0 -0.5625,0.068 11,11 0 0 1 0.5625,-0.068 z m 2.568359,0.084 a 11,11 0 0 1 0.560547,0.1015 11,11 0 0 0 -0.560547,-0.1015 z m -3.667968,0.064 a 11,11 0 0 0 -0.513672,0.1172 11,11 0 0 1 0.513672,-0.1172 z m 4.726562,0.1485 a 11,11 0 0 1 0.56836,0.1621 11,11 0 0 0 -0.56836,-0.1621 z m -5.810547,0.1152 a 11,11 0 0 0 -0.478515,0.1601 11,11 0 0 1 0.478515,-0.1601 z m 6.9375,0.2324 a 11,11 0 0 1 0.296875,0.1133 11,11 0 0 0 -0.296875,-0.1133 z m -7.814453,0.072 A 11,11 0 0 0 13,25 11,11 0 0 0 24,36 11,11 0 0 0 35,25 11,11 0 0 0 28.326172,14.9004 l -0.783203,1.8301 A 9.0000172,9.0000172 0 0 1 33,25 a 9.0000172,9.0000172 0 0 1 -9,9 9.0000172,9.0000172 0 0 1 -9,-9 9.0000172,9.0000172 0 0 1 5.726562,-8.3828 l -0.722656,-1.8535 z"
     style="opacity:0.2;fill:#000000;fill-opacity:1;stroke:none;stroke-width:10;stroke-miterlimit:4;stroke-dasharray:none;stroke-opacity:1" />
  <path
     inkscape:connector-curvature="0"
     style="opacity:1;fill:#ffffff;fill-opacity:1;stroke:none;stroke-width:10;stroke-miterlimit:4;stroke-dasharray:none;stroke-opacity:1"
     d="M 24,13 A 11,11 0 0 0 23.589844,13.01953 11,11 0 0 1 24.189453,13.00586 11,11 0 0 0 24,13 Z m 0.464844,0.01563 a 11,11 0 0 1 0.625,0.04883 11,11 0 0 0 -0.625,-0.04883 z m -1.400391,0.03125 a 11,11 0 0 0 -0.5625,0.06836 11,11 0 0 1 0.5625,-0.06836 z m 2.568359,0.08398 a 11,11 0 0 1 0.560547,0.101563 11,11 0 0 0 -0.560547,-0.101563 z m -3.667968,0.06445 a 11,11 0 0 0 -0.513672,0.117188 11,11 0 0 1 0.513672,-0.117188 z m 4.726562,0.148438 a 11,11 0 0 1 0.56836,0.162109 11,11 0 0 0 -0.56836,-0.162109 z m -5.810547,0.115234 a 11,11 0 0 0 -0.478515,0.160157 11,11 0 0 1 0.478515,-0.160157 z m 6.9375,0.232422 a 11,11 0 0 1 0.296875,0.113282 11,11 0 0 0 -0.296875,-0.113282 z m -7.814453,0.07227 A 11,11 0 0 0 13,24 11,11 0 0 0 24,35 11,11 0 0 0 35,24 11,11 0 0 0 28.326172,13.900391 l -0.783203,1.830078 A 9.0000172,9.0000172 0 0 1 33,24 a 9.0000172,9.0000172 0 0 1 -9,9 9.0000172,9.0000172 0 0 1 -9,-9 9.0000172,9.0000172 0 0 1 5.726562,-8.382812 l -0.722656,-1.853516 z"
     id="circle4142" />
  <rect
     y="11.499983"
     x="23"
     height="8.9999657"
     width="2"
     id="rect4176"
     style="opacity:0.3;fill:#000000;fill-opacity:1;stroke:none;stroke-width:10;stroke-miterlimit:4;stroke-dasharray:none;stroke-opacity:1" />
  <rect
     style="opacity:1;fill:#ffffff;fill-opacity:1;stroke:none;stroke-width:10;stroke-miterlimit:4;stroke-dasharray:none;stroke-opacity:1"
     id="rect4154"
     width="2"
     height="8.9999657"
     x="23"
     y="10.999983" />
  <path
     inkscape:connector-curvature="0"
     style="opacity:0.2;fill:#ffffff;fill-opacity:1;stroke:none;stroke-width:10;stroke-miterlimit:4;stroke-dasharray:none;stroke-opacity:1"
     d="M 24,4 A 20,20 0 0 0 4.140625,21.851562 20,18.999983 0 0 1 24,5 20,18.999983 0 0 1 43.921875,22.447266 20,20 0 0 0 24,4 Z M 43.921875,22.447266 A 20,20 0 0 1 44,24 20,18.999983 0 0 0 43.921875,22.447266 Z M 4.140625,21.851562 A 20,18.999983 0 0 0 4.091797,22.244141 20,20 0 0 1 4.140625,21.851562 Z M 4.091797,22.244141 A 20,20 0 0 0 4,24 20,18.999983 0 0 1 4.0917969,22.244141 Z"
     id="circle4156" />
  <path
     inkscape:connector-curvature="0"
     id="path4164"
     d="M 24,44 A 20,20 0 0 1 4.140625,26.1484 20,18.999983 0 0 0 24,43 20,18.999983 0 0 0 43.921875,25.5527 20,20 0 0 1 24,44 Z M 43.921875,25.5527 A 20,20 0 0 0 44,24 20,18.999983 0 0 1 43.92187,25.5527 Z M 4.140625,26.1484 A 20,18.999983 0 0 1 4.091797,25.7559 20,20 0 0 0 4.140625,26.1484 Z M 4.091797,25.7559 A 20,20 0 0 1 4,24 20,18.999983 0 0 0 4.091797,25.7559 Z"
     style="opacity:0.3;fill:#000000;fill-opacity:1;stroke:none;stroke-width:10;stroke-miterlimit:4;stroke-dasharray:none;stroke-opacity:1" />
</svg>

<?xml version="1.0" encoding="UTF-8" standalone="no"?>
<svg
   xmlns:dc="http://purl.org/dc/elements/1.1/"
   xmlns:cc="http://creativecommons.org/ns#"
   xmlns:rdf="http://www.w3.org/1999/02/22-rdf-syntax-ns#"
   xmlns:svg="http://www.w3.org/2000/svg"
   xmlns="http://www.w3.org/2000/svg"
   version="1.1"
   id="svg2"
   viewBox="0 0 48 48.000001"
   height="48"
   width="48">
  <defs
     id="defs4" />
  <metadata
     id="metadata7">
    <rdf:RDF>
      <cc:Work
         rdf:about="">
        <dc:format>image/svg+xml</dc:format>
        <dc:type
           rdf:resource="http://purl.org/dc/dcmitype/StillImage" />
        <dc:title></dc:title>
      </cc:Work>
    </rdf:RDF>
  </metadata>
  <g
     transform="translate(0,-1004.3622)"
     id="layer1">
    <circle
       r="20"
       cy="1028.3622"
       cx="24"
       id="path4136"
       style="opacity:1;fill:#666666;fill-opacity:1;stroke:none;stroke-width:10;stroke-miterlimit:4;stroke-dasharray:none;stroke-opacity:1" />
    <circle
       style="opacity:1;fill:#800000;fill-opacity:1;stroke:none;stroke-width:10;stroke-miterlimit:4;stroke-dasharray:none;stroke-opacity:1"
       id="circle4138"
       cx="24"
       cy="1028.3622"
       r="17.000017" />
    <path
       style="opacity:0.3;fill:#000000;fill-opacity:1;stroke:none;stroke-width:10;stroke-miterlimit:4;stroke-dasharray:none;stroke-opacity:1"
       d="m 24,1018.3622 a 11,11 0 0 0 -0.410156,0.019 11,11 0 0 1 0.599609,-0.014 A 11,11 0 0 0 24,1018.3622 Z m 0.464844,0.016 a 11,11 0 0 1 0.625,0.049 11,11 0 0 0 -0.625,-0.049 z m -1.400391,0.031 a 11,11 0 0 0 -0.5625,0.068 11,11 0 0 1 0.5625,-0.068 z m 2.568359,0.084 a 11,11 0 0 1 0.560547,0.1015 11,11 0 0 0 -0.560547,-0.1015 z m -3.667968,0.064 a 11,11 0 0 0 -0.513672,0.1172 11,11 0 0 1 0.513672,-0.1172 z m 4.726562,0.1485 a 11,11 0 0 1 0.56836,0.1621 11,11 0 0 0 -0.56836,-0.1621 z m -5.810547,0.1152 a 11,11 0 0 0 -0.478515,0.1601 11,11 0 0 1 0.478515,-0.1601 z m 6.9375,0.2324 a 11,11 0 0 1 0.296875,0.1133 11,11 0 0 0 -0.296875,-0.1133 z m -7.814453,0.072 A 11,11 0 0 0 13,1029.3622 a 11,11 0 0 0 11,11 11,11 0 0 0 11,-11 11,11 0 0 0 -6.673828,-10.0996 l -0.783203,1.8301 A 9.0000172,9.0000172 0 0 1 33,1029.3622 a 9.0000172,9.0000172 0 0 1 -9,9 9.0000172,9.0000172 0 0 1 -9,-9 9.0000172,9.0000172 0 0 1 5.726562,-8.3828 l -0.722656,-1.8535 z"
       id="path4178" />
    <path
       id="circle4142"
       transform="translate(0,1004.3622)"
       d="M 24 13 A 11 11 0 0 0 23.589844 13.019531 A 11 11 0 0 1 24.189453 13.005859 A 11 11 0 0 0 24 13 z M 24.464844 13.015625 A 11 11 0 0 1 25.089844 13.064453 A 11 11 0 0 0 24.464844 13.015625 z M 23.064453 13.046875 A 11 11 0 0 0 22.501953 13.115234 A 11 11 0 0 1 23.064453 13.046875 z M 25.632812 13.130859 A 11 11 0 0 1 26.193359 13.232422 A 11 11 0 0 0 25.632812 13.130859 z M 21.964844 13.195312 A 11 11 0 0 0 21.451172 13.3125 A 11 11 0 0 1 21.964844 13.195312 z M 26.691406 13.34375 A 11 11 0 0 1 27.259766 13.505859 A 11 11 0 0 0 26.691406 13.34375 z M 20.880859 13.458984 A 11 11 0 0 0 20.402344 13.619141 A 11 11 0 0 1 20.880859 13.458984 z M 27.818359 13.691406 A 11 11 0 0 1 28.115234 13.804688 A 11 11 0 0 0 27.818359 13.691406 z M 20.003906 13.763672 A 11 11 0 0 0 13 24 A 11 11 0 0 0 24 35 A 11 11 0 0 0 35 24 A 11 11 0 0 0 28.326172 13.900391 L 27.542969 15.730469 A 9.0000172 9.0000172 0 0 1 33 24 A 9.0000172 9.0000172 0 0 1 24 33 A 9.0000172 9.0000172 0 0 1 15 24 A 9.0000172 9.0000172 0 0 1 20.726562 15.617188 L 20.003906 13.763672 z "
       style="opacity:1;fill:#ffffff;fill-opacity:1;stroke:none;stroke-width:10;stroke-miterlimit:4;stroke-dasharray:none;stroke-opacity:1" />
    <rect
       style="opacity:0.3;fill:#000000;fill-opacity:1;stroke:none;stroke-width:10;stroke-miterlimit:4;stroke-dasharray:none;stroke-opacity:1"
       id="rect4176"
       width="2"
       height="8.9999657"
       x="23"
       y="1015.8622" />
    <rect
       y="1015.3622"
       x="23"
       height="8.9999657"
       width="2"
       id="rect4154"
       style="opacity:1;fill:#ffffff;fill-opacity:1;stroke:none;stroke-width:10;stroke-miterlimit:4;stroke-dasharray:none;stroke-opacity:1" />
    <path
       id="circle4156"
       transform="translate(0,1004.3622)"
       d="M 24 4 A 20 20 0 0 0 4.140625 21.851562 A 20 18.999983 0 0 1 24 5 A 20 18.999983 0 0 1 43.921875 22.447266 A 20 20 0 0 0 24 4 z M 43.921875 22.447266 A 20 20 0 0 1 44 24 A 20 18.999983 0 0 0 43.921875 22.447266 z M 4.140625 21.851562 A 20 18.999983 0 0 0 4.0917969 22.244141 A 20 20 0 0 1 4.140625 21.851562 z M 4.0917969 22.244141 A 20 20 0 0 0 4 24 A 20 18.999983 0 0 1 4.0917969 22.244141 z "
       style="opacity:0.2;fill:#ffffff;fill-opacity:1;stroke:none;stroke-width:10;stroke-miterlimit:4;stroke-dasharray:none;stroke-opacity:1" />
    <path
       style="opacity:0.3;fill:#000000;fill-opacity:1;stroke:none;stroke-width:10;stroke-miterlimit:4;stroke-dasharray:none;stroke-opacity:1"
       d="M 24,1048.3622 A 20,20 0 0 1 4.140625,1030.5106 20,18.999983 0 0 0 24,1047.3622 20,18.999983 0 0 0 43.921875,1029.9149 20,20 0 0 1 24,1048.3622 Z m 19.921875,-18.4473 A 20,20 0 0 0 44,1028.3622 a 20,18.999983 0 0 1 -0.07813,1.5527 z m -39.78125,0.5957 a 20,18.999983 0 0 1 -0.048828,-0.3925 20,20 0 0 0 0.048828,0.3925 z m -0.048828,-0.3925 A 20,20 0 0 1 4,1028.3622 a 20,18.999983 0 0 0 0.091797,1.7559 z"
       id="path4164" />
    <path
       id="circle4166"
       transform="translate(0,1004.3622)"
       d="M 24 7 A 17.000017 17.000017 0 0 0 7.1132812 22.222656 A 16.999983 15.999983 0 0 1 24 8 A 16.999983 15.999983 0 0 1 40.935547 22.707031 A 17.000017 17.000017 0 0 0 24 7 z M 40.935547 22.707031 A 17.000017 17.000017 0 0 1 41 24 A 16.999983 15.999983 0 0 0 40.935547 22.707031 z M 7.1132812 22.222656 A 16.999983 15.999983 0 0 0 7.078125 22.503906 A 17.000017 17.000017 0 0 1 7.1132812 22.222656 z M 7.078125 22.503906 A 17.000017 17.000017 0 0 0 7 24 A 16.999983 15.999983 0 0 1 7.078125 22.503906 z "
       style="opacity:0.2;fill:#ffffff;fill-opacity:1;stroke:none;stroke-width:10;stroke-miterlimit:4;stroke-dasharray:none;stroke-opacity:1" />
    <path
       style="opacity:0.3;fill:#000000;fill-opacity:1;stroke:none;stroke-width:10;stroke-miterlimit:4;stroke-dasharray:none;stroke-opacity:1"
       d="M 24,1045.3622 A 17.000017,17.000017 0 0 1 7.1132812,1030.1395 16.999983,15.999983 0 0 0 24,1044.3622 16.999983,15.999983 0 0 0 40.935547,1029.6552 17.000017,17.000017 0 0 1 24,1045.3622 Z m 16.935547,-15.707 a 17.000017,17.000017 0 0 0 0.06445,-1.293 16.999983,15.999983 0 0 1 -0.06445,1.293 z m -33.8222658,0.4843 a 16.999983,15.999983 0 0 1 -0.035156,-0.2812 17.000017,17.000017 0 0 0 0.035156,0.2812 z m -0.035156,-0.2812 A 17.000017,17.000017 0 0 1 7,1028.3622 a 16.999983,15.999983 0 0 0 0.078125,1.4961 z"
       id="path4174" />
  </g>
</svg>
